build/img/arrow1.svg

<svg width="66" height="174" viewBox="0 0 66 174" fill="none" xmlns="http://www.w3.org/2000/svg">
<path d="M24.0714 16.9386C24.4578 17.2362 24.7183 17.6916 24.701 18.2441C24.6869 18.7287 24.6742 19.2129 24.6585 19.6979C26.1177 15.5844 27.8242 11.5718 29.7735 7.64316C25.1072 11.0149 20.4886 14.4491 15.9306 17.9636C18.0431 17.3703 20.1559 16.7785 22.2684 16.1851C23.1128 15.9483 23.741 16.3498 24.0714 16.9386ZM46.6857 110.248C43.6644 98.7037 30.8503 103.716 27.9363 111.995C26.0622 117.324 26.6816 123.765 27.804 129.206C38.3326 130.238 49.8218 122.235 46.6857 110.248ZM36.11 2.9392C30.5631 12.5285 26.6193 22.6548 24.1999 33.4699C23.7801 35.3385 20.8269 34.9182 20.8814 33.0081C20.9848 29.6131 21.0856 26.2204 21.1863 22.8278C9.88617 36.3586 4.75176 53.5768 3.75819 71.1632C2.73269 89.2717 3.19509 117.304 21.2956 127.243C22.2468 127.766 23.2443 128.175 24.2682 128.493C22.8039 120.71 22.6717 111.638 27.7677 105.371C31.9348 100.247 39.7717 97.7182 45.4076 102.087C59.9557 113.357 43.3293 134.108 28.7271 133.003C33.7365 150.729 47.6231 164.809 64.7679 171.311C65.9544 171.761 65.5041 173.62 64.2367 173.252C45.1314 167.692 30.084 151.73 25.1592 132.433C5.10608 127.822 1.12763 101.564 0.32821 84.2205C-0.717928 61.6343 3.92788 38.2925 18.516 20.7407C15.225 21.6649 11.9336 22.5877 8.64266 23.512C7.13621 23.9353 5.65311 21.7701 7.00794 20.6937C15.7437 13.7449 24.6686 7.058 33.7965 0.635798C35.2203 -0.365744 36.911 1.55604 36.11 2.9392Z" fill="#8DD9E5"/>
<path d="M24.0714 16.9386C24.4578 17.2362 24.7183 17.6916 24.701 18.2441C24.6869 18.7287 24.6742 19.2129 24.6585 19.6979C26.1177 15.5844 27.8242 11.5718 29.7735 7.64316C25.1072 11.0149 20.4886 14.4491 15.9306 17.9636C18.0431 17.3703 20.1559 16.7785 22.2684 16.1851C23.1128 15.9483 23.741 16.3498 24.0714 16.9386ZM46.6857 110.248C43.6644 98.7037 30.8503 103.716 27.9363 111.995C26.0622 117.324 26.6816 123.765 27.804 129.206C38.3326 130.238 49.8218 122.235 46.6857 110.248ZM36.11 2.9392C30.5631 12.5285 26.6193 22.6548 24.1999 33.4699C23.7801 35.3385 20.8269 34.9182 20.8814 33.0081C20.9848 29.6131 21.0856 26.2204 21.1863 22.8278C9.88617 36.3586 4.75176 53.5768 3.75819 71.1632C2.73269 89.2717 3.19509 117.304 21.2956 127.243C22.2468 127.766 23.2443 128.175 24.2682 128.493C22.8039 120.71 22.6717 111.638 27.7677 105.371C31.9348 100.247 39.7717 97.7182 45.4076 102.087C59.9557 113.357 43.3293 134.108 28.7271 133.003C33.7365 150.729 47.6231 164.809 64.7679 171.311C65.9544 171.761 65.5041 173.62 64.2367 173.252C45.1314 167.692 30.084 151.73 25.1592 132.433C5.10608 127.822 1.12763 101.564 0.32821 84.2205C-0.717928 61.6343 3.92788 38.2925 18.516 20.7407C15.225 21.6649 11.9336 22.5877 8.64266 23.512C7.13621 23.9353 5.65311 21.7701 7.00794 20.6937C15.7437 13.7449 24.6686 7.058 33.7965 0.635798C35.2203 -0.365744 36.911 1.55604 36.11 2.9392Z" fill="#5879E8"/>
</svg>

<svg xmlns="http://www.w3.org/2000/svg" fill="none" viewBox="0 0 66 174">
  <defs/>
  <path fill="#8DD9E5" d="M24.071 16.939c.387.297.647.753.63 1.305-.014.485-.027.969-.043 1.454a109.313 109.313 0 015.115-12.055 554.653 554.653 0 00-13.842 10.32c2.112-.593 4.225-1.184 6.337-1.778.845-.237 1.473.165 1.803.754zm22.615 93.309c-3.022-11.544-15.836-6.532-18.75 1.747-1.874 5.329-1.254 11.77-.132 17.211 10.529 1.032 22.018-6.971 18.882-18.958zM36.11 2.939c-5.547 9.59-9.49 19.716-11.91 30.53-.42 1.87-3.373 1.45-3.319-.46.104-3.396.205-6.789.305-10.181-11.3 13.53-16.434 30.749-17.428 48.335-1.025 18.109-.563 46.141 17.538 56.08.95.523 1.948.932 2.972 1.25-1.464-7.783-1.596-16.855 3.5-23.122 4.167-5.124 12.004-7.653 17.64-3.284 14.548 11.27-2.079 32.021-16.68 30.916 5.008 17.726 18.895 31.806 36.04 38.308 1.186.45.736 2.309-.531 1.941-19.106-5.56-34.153-21.522-39.078-40.819C5.106 127.822 1.128 101.564.33 84.221-.719 61.633 3.927 38.291 18.515 20.74l-9.873 2.771c-1.507.423-2.99-1.742-1.635-2.818A568.713 568.713 0 0133.797.636c1.423-1.002 3.114.92 2.313 2.303z"/>
  <path fill="#5879E8" d="M24.071 16.939c.387.297.647.753.63 1.305-.014.485-.027.969-.043 1.454a109.313 109.313 0 015.115-12.055 554.653 554.653 0 00-13.842 10.32c2.112-.593 4.225-1.184 6.337-1.778.845-.237 1.473.165 1.803.754zm22.615 93.309c-3.022-11.544-15.836-6.532-18.75 1.747-1.874 5.329-1.254 11.77-.132 17.211 10.529 1.032 22.018-6.971 18.882-18.958zM36.11 2.939c-5.547 9.59-9.49 19.716-11.91 30.53-.42 1.87-3.373 1.45-3.319-.46.104-3.396.205-6.789.305-10.181-11.3 13.53-16.434 30.749-17.428 48.335-1.025 18.109-.563 46.141 17.538 56.08.95.523 1.948.932 2.972 1.25-1.464-7.783-1.596-16.855 3.5-23.122 4.167-5.124 12.004-7.653 17.64-3.284 14.548 11.27-2.079 32.021-16.68 30.916 5.008 17.726 18.895 31.806 36.04 38.308 1.186.45.736 2.309-.531 1.941-19.106-5.56-34.153-21.522-39.078-40.819C5.106 127.822 1.128 101.564.33 84.221-.719 61.633 3.927 38.291 18.515 20.74l-9.873 2.771c-1.507.423-2.99-1.742-1.635-2.818A568.713 568.713 0 0133.797.636c1.423-1.002 3.114.92 2.313 2.303z"/>
</svg>
